X: 473
T: He's O'er the Hill
C: Trad arr. Bert Murray
R: jig
B: Bert Murray's "Bon Accord Collection" 1999 p.47
%
Z: 2011 John Chambers <jc:trillian.mit.edu>
M: 6/8
L: 1/8
K: A
uE |\
EFA (A2c) | cBA (F2A) | EFA Aec | cBA (B2F) |\
EFA (A2c) | cBA (F2f) | e2f ecA | BAG A2 ||
c |\
e2f ecA | cBA F2f | e2f ecA | cBA B2c |\
e2f ecA | cBA F2A | EFA Aec | BAG A2 |]

%%sep 2 1 500

